docs/assets/img/details/camera.svg

<?xml version="1.0" encoding="UTF-8"?>
<svg width="15px" height="13px" viewBox="0 0 15 13" version="1.1" xmlns="http://www.w3.org/2000/svg" xmlns:xlink="http://www.w3.org/1999/xlink">
    <title>camera</title>
    <g id="Welcome" stroke="none" stroke-width="1" fill="none" fill-rule="evenodd">
        <g id="lpw-sale-properties-detailed-page-1.1(expanded)" transform="translate(-295.000000, -6581.000000)" fill="#FFFFFF" fill-rule="nonzero">
            <g id="camera" transform="translate(295.000000, 6581.000000)">
                <path d="M14.4940618,1.92998117 C14.1947743,1.6058622 13.7814727,1.41433735 13.3111639,1.41433735 L10.9453682,1.41433735 L10.9453682,1.38487199 C10.9453682,1.01655497 10.8028504,0.662970633 10.5605701,0.427247741 C10.3182898,0.176792169 9.99049881,0.0294653614 9.63420428,0.0294653614 L5.35866983,0.0294653614 C4.98812352,0.0294653614 4.66033254,0.176792169 4.41805226,0.427247741 C4.17577197,0.677703313 4.03325416,1.01655497 4.03325416,1.38487199 L4.03325416,1.41433735 L1.68171021,1.41433735 C1.21140143,1.41433735 0.798099762,1.6058622 0.498812352,1.92998117 C0.199524941,2.23936747 2.84217094e-14,2.68134789 2.84217094e-14,3.15279367 L2.84217094e-14,10.4896687 C2.84217094e-14,10.9758471 0.185273159,11.4030949 0.498812352,11.7124812 C0.798099762,12.0218675 1.22565321,12.228125 1.68171021,12.228125 L13.3111639,12.228125 C13.7814727,12.228125 14.1947743,12.0366002 14.4940618,11.7124812 C14.7933492,11.4030949 14.9928741,10.9611145 14.9928741,10.4896687 L14.9928741,3.15279367 C14.9928741,2.66661521 14.807601,2.23936747 14.4940618,1.92998117 Z M14.2517815,10.4896687 L14.2375297,10.4896687 C14.2375297,10.7548569 14.1377672,10.9905798 13.9667458,11.167372 C13.7957245,11.3441642 13.567696,11.4472929 13.3111639,11.4472929 L1.68171021,11.4472929 C1.42517815,11.4472929 1.19714964,11.3441642 1.02612827,11.167372 C0.855106888,10.9905798 0.755344418,10.7548569 0.755344418,10.4896687 L0.755344418,3.15279367 C0.755344418,2.88760542 0.855106888,2.65188253 1.02612827,2.47509036 C1.19714964,2.29829819 1.42517815,2.19516943 1.68171021,2.19516943 L4.43230404,2.19516943 C4.64608076,2.19516943 4.81710214,2.01837726 4.81710214,1.79738705 L4.81710214,1.37013931 C4.81710214,1.20807982 4.87410926,1.06075301 4.97387173,0.957624247 C5.0736342,0.854495482 5.21615202,0.795564759 5.37292162,0.795564759 L9.63420428,0.795564759 C9.79097387,0.795564759 9.93349169,0.854495482 10.0332542,0.957624247 C10.1330166,1.06075301 10.1900238,1.20807982 10.1900238,1.37013931 L10.1900238,1.79738705 C10.1900238,2.01837726 10.3610451,2.19516943 10.5748219,2.19516943 L13.3254157,2.19516943 C13.5819477,2.19516943 13.8099762,2.29829819 13.9809976,2.47509036 C14.152019,2.65188253 14.2517815,2.88760542 14.2517815,3.15279367 L14.2517815,10.4896687 Z" id="Shape"></path>
                <path d="M7.49643705,3.19699172 C6.52731591,3.19699172 5.64370546,3.60950678 5.01662708,4.25774473 C4.37529691,4.92071536 3.99049881,5.81940889 3.99049881,6.82123117 C3.99049881,7.82305346 4.38954869,8.73647967 5.01662708,9.38471762 C5.65795724,10.0476883 6.52731591,10.4454706 7.49643705,10.4454706 C8.46555819,10.4454706 9.34916865,10.0329556 9.97624703,9.38471762 C10.6175772,8.72174699 11.0023753,7.82305346 11.0023753,6.82123117 C11.0023753,5.81940889 10.6033254,4.90598268 9.97624703,4.25774473 C9.34916865,3.60950678 8.46555819,3.19699172 7.49643705,3.19699172 Z M9.43467933,8.83960843 C8.93586698,9.34051958 8.25178147,9.66463855 7.49643705,9.66463855 C6.74109264,9.66463855 6.05700713,9.34051958 5.55819477,8.83960843 C5.05938242,8.32396461 4.76009501,7.61679593 4.76009501,6.83596386 C4.76009501,6.05513178 5.0736342,5.3479631 5.55819477,4.83231928 C6.05700713,4.31667545 6.74109264,4.00728916 7.49643705,4.00728916 C8.25178147,4.00728916 8.93586698,4.33140813 9.43467933,4.83231928 C9.93349169,5.3479631 10.2327791,6.05513178 10.2327791,6.83596386 C10.2470309,7.61679593 9.93349169,8.32396461 9.43467933,8.83960843 Z" id="Shape"></path>
                <ellipse id="Oval" cx="12.5700713" cy="3.90416039" rx="1" ry="1"></ellipse>
            </g>
        </g>
    </g>
</svg>

<svg width="15" height="13" xmlns="http://www.w3.org/2000/svg"><g fill="#FFF"><path d="M14.494 1.93a1.587 1.587 0 00-1.183-.516h-2.366v-.03c0-.367-.142-.721-.384-.957A1.283 1.283 0 009.634.03H5.36c-.37 0-.699.148-.94.398a1.37 1.37 0 00-.386.958v.03H1.682c-.47 0-.884.19-1.183.515-.3.31-.499.751-.499 1.223v7.337c0 .486.185.913.499 1.222.3.31.727.516 1.183.516h11.63c.47 0 .883-.191 1.182-.516.3-.309.499-.75.499-1.222V3.153c0-.486-.185-.914-.499-1.223zm-.242 8.56h-.014c0 .265-.1.5-.271.677a.9.9 0 01-.656.28H1.681a.9.9 0 01-.655-.28.962.962 0 01-.27-.677V3.153c0-.265.1-.501.27-.678a.9.9 0 01.656-.28h2.75a.39.39 0 00.385-.398V1.37a.59.59 0 01.157-.412.55.55 0 01.399-.162h4.261c.157 0 .3.058.4.162a.59.59 0 01.156.412v.427a.39.39 0 00.385.398h2.75a.9.9 0 01.656.28c.171.177.27.413.27.678v7.337z"/><path d="M7.496 3.197c-.969 0-1.852.413-2.48 1.06A3.657 3.657 0 003.99 6.822c0 1.002.4 1.915 1.027 2.564a3.422 3.422 0 002.48 1.06c.969 0 1.852-.412 2.48-1.06a3.657 3.657 0 001.025-2.564 3.693 3.693 0 00-1.026-2.563 3.456 3.456 0 00-2.48-1.061zM9.435 8.84a2.74 2.74 0 01-1.939.825 2.74 2.74 0 01-1.938-.825 2.865 2.865 0 01-.798-2.004c0-.78.314-1.488.798-2.004a2.68 2.68 0 011.938-.825c.756 0 1.44.324 1.939.825a2.87 2.87 0 01.798 2.004c.014.78-.3 1.488-.798 2.004z"/><circle cx="12.57" cy="3.904" r="1"/></g></svg>
